X:1
T:Maria clausus ortus
T:O Maria clausus hortus
T:Orlando di Lasso
T:Source : Magnum opus musicum(1604)---München---First print A.Berg---1575. Editor : André Vierendeels (08/04/15).
T:Notes : Original clefs : G2, C3, C4 Editorial accidentals above the staff Original note values have been halved Square brackets indicate ligatures Dotted brackets indicate black notes Music collected by Ferdinando and Rodolpho di Lasso 
C:Orlando di Lasso
%%score [ 1 2 3 ]
L:1/8
Q:1/4=120
M:2/2
K:C
V:1 treble nm="Superius" snm="S"
V:2 treble nm="Altus" snm="A"
V:3 treble-8 nm="Tenor" snm="T"
V:1
 z8 | z8 | z8 | d6 d2 | c4 B2 e2- | e2 d2 c3 B/A/ | c4 B4 | z8 | z4 A3 A | c2 B2 c4 | G4 A3 A | %11
w: |||O- Ma-|ri- a clau-|* sus hor- * *|* tus,||nau- fra-|gan- tis mun-|di, nau- fra-|
 c2 B2 z2 c2- | cc e2 d2 e2 | E4 G4 | A4 z2 G2- | G2 A2 _B4- | B2 A2 z2 F2- | F2 G2 A4 | %18
w: gan- tis, nau-|* fra- gan- tis mun-|di por-|tus, pla-|* ca no-|* bis, pla-|* ca no-|
 G2 g2 f2 e2- | ed d3 c/B/ c2 | d2 d4 d2 | d4 c2 f2- | f2 f2 d4- | d4 c4 | A6 A2 | %25
w: bis qui re fe-||cit, ma- ter|si- bi, ma-|* ter si-|* bi|quam e-|
 fe ed/c/ d2 d2- | d2 cB ^c4 |[M:3/2] d4 ^c4 d4 | e4 A4 c4- | c4 B4 A4 | B8 B4 | e4 g4 f4 | %32
w: le- * * * * * git.|_ _ _ _|A- de- *|sto jam su-|* pli- ci-|bus tu-|is fa- ven-|
 e4 A4 d4 | ^c8 z4 | z12 | z12 | z4 e8 | d4 f4 e4- | e2 d2 e2 B2 c4 | B4 c4 A4 |[M:2/2] A8 | z8 | %42
w: do prae- ci-|bus,|||ma-|num be- ni-||gnam por- ri-|ge||
 z8 | A3 B cd e2- | ed/c/ Bc d2 e2 | AB cd e2 c2- | cB/A/ G2 c4 | G3 A Bc d2- | dc/B/ AB c2 d2 | %49
w: |vi- * * * *|* * * * * * tam-|que _ _ _ _ no-|* * * * stram,|vi- * * * *|* * * * * * tam-|
 e2 c4 A2 | c3 B/A/ B3 B | c4 z2 A2- | AB cd e2 c2 | e3 d c4 | _B4 A2 f2- | fe d4 c2 | %56
w: que no- stram|di- * * * ri-|ge, vi-|* * * * * tam-|que, _ _|no- stra di-|* * * ri-|
 !fermata!d8 |] %57
w: ge.|
V:2
 z8 | G6 G2 | F4 E2 A2- | A2 G2 F3 E/D/ | F2 E3 D CB, | A,2 F4 F2 | E6 D2 | A2 G2 FD F2- | %8
w: |O Ma-|ri- a clau-|* sus or- * *|* tus, _ _ _|_ O Ma-|ri- a|clau- sus hor- * *|
 FE E3 D/C/ D2 | E4 z2 E2- | EE G4 ^F2 | G6 F2 | E2 A,2 z2 A,2- | A,A, C2 B,2 C2- | C2 D2 E4 | %15
w: |tus, nau-|* fra- gan- tis|mun- di|por- tus, nau-|* fra- gan- tis mun-|* di por-|
 E4 z2 D2 | E2 F3 E DC | D4 C2 F2- | FE/D/ E2 A2 G2- | GF FE/D/ E4 | D4 F4- | F2 G2 A4 | D4 F4- | %23
w: tus pla-|ca no- * * *|* bis qui|_ _ _ _ te fe-||cit, ma-|* ter si-|bi, ma-|
 F2 G2 A4 | D2 F2 E2 F2- | FG A3 G/F/ G2 | F2 ED E4 |[M:3/2] F4 E4 F4 | G4 F4 E4 | A4 G4 ^F4 | %30
w: * ter si-|bi quam e- le-||git. _ _ _|A- de- *|sto jam su-|pli _ ci-|
 G4 D4 G4 | G8 A4 | A4 ^F4 G4 | E8 E4- | E4 D4 F4 | E6 C2 D4 | E8 G4- | G4 F4 A4 | G8 ^F4 | G8 C4 | %40
w: bus tu- is|fa- ven-|do prae- ci-|bus, ma-|* num be-|ni- * gnam,|ma- num|_ be- *|ni- gnam|por- ri-|
[M:2/2] C4 D3 E | FG A3 G/F/ EF | G2 A2 D2 F2- | F2 ED E2 CD | EF G2 G3 F/E/ | F2 E2 CD EF | %46
w: ge, vi- *||* tam- que no-|* * * * stram _|_ _ _ di- * *|* ri- ge, _ _ _|
 E4 z2 CD | EF G3 F/E/ DE | F3 E/D/ E2 G2- | G2 F2 E3 F | G2 A3 G/F/ G2 | AG FE F2 F2 | %52
w: _ vi- *||* * * * tam-|* que no- *|* stram _ _ _|di- * * * * ri-|
 C4 z2 A,2- | A,B, CD EF G2 | D2 F2 FE DC | D2 D2 E3 E | !fermata!D8 |] %57
w: ge, no-||stram di- ri- * * *|ge, di- * ri-|ge.|
V:3
 d6 d2 | c4 B2 e2- | e2 d2 c3 B/A/ | _B8 | A4 z4 | z4 A4- | A2 A2 G4 |"^b" F2 B4 A2 | G3 F/E/ F4 | %9
w: O Ma-|ri- a clau|_ sus or- * *||tus,|O|_ Ma- ri-|a clai- sus|hor- * * *|
 E4 A3 A | c2 B2 c2 d2 | e4 c2 A2- | AA c2 B2 c2- | c2 A2 E4 | F4 c4- | c4 G4- | G2 A2 _B4- | %17
w: tus, nau- fra-|gan- tis mun- di|por- tus, nau-|* fra- gan- tis mun-|* di por-|* tus|_ pla-|* ca no-|
 B4 F2 F2 |"^b""^b" c3 B AB cA | _B4 A4 | D2 _B4 B2 | _B4 F4 |"^b""^b" z2 B4 B2 |"^b" B4 F2 f2- | %24
w: * bis qui|te _ _ _ _ _|_ fe-|cit, ma- ter|si- bi,|ma- ter|si- bi, qaum|
 fe d2 ^c2 d2- | dc cB/A/ _B4 | A8 |[M:3/2] d4 A4 d4 | c4 d4 A4 | F4 G4 d4 | G8 G4 | c4 e4 d4 | %32
w: _ _ _ e- le-||git.|A- de- *|sto jam su-|pli- * ci-|bus tu-|is fa- ven-|
 ^c4 d4 _B4 | A4 A8 | G4 _B4 A4- | A2 G2 A2 E2 F4 | E4 c8 | B4 d4 c4- | c2 B2 c2 G2 A4 | G4 E4 F4 | %40
w: do prae- ci-|bus, ma-|num be- ni-||* gnam,|ma- num be-|* * * * ni-|gnam por- ri-|
[M:2/2] F4 z2 D2- | DEFG ABcd | ec f4 d2 | d2 cB A3 B | cd e2 B2 c2 | d2 A2 A4 | z4 A3 B | %47
w: ge, vi-||* * * tam-|que, _ _ _ _|_ _ _ no- stram|di- ri- ge,|vi- *|
 cd e3 d/c/ Bc | d3 c/B/ A2 B2 | c2 A3 B cd | e2 f2 d2 e2 |"^#" A4 D3 E | FG AB cd e2 | %53
w: |* * * * tam-|que no- * * *|* stram di- ri-|ge, vi- *||
 c2 A3 G/F/ EF | G2 d3 c _BA | _B2 B2 A3 A | !fermata!D8 |] %57
w: tam- que _ _ _ _|_ no- * * *|* stram gi- ri-|ge.|

